fs/cut_24_regular.svg

<svg viewBox="0 0 24 24" fill="none" xmlns="http://www.w3.org/2000/svg" height="1em" width="1em">
  <path d="M12.1409 9.3415L12.14 9.34286L7.37017 2.3284C7.13725 1.98587 6.67077 1.89702 6.32824 2.12994C5.98572 2.36286 5.89687 2.82934 6.12978 3.17187L11.2606 10.7171L8.86478 14.4605C8.30797 14.1665 7.67342 14.0001 7 14.0001C4.79086 14.0001 3 15.791 3 18.0001C3 20.2093 4.79086 22.0001 7 22.0001C9.20914 22.0001 11 20.2093 11 18.0001C11 17.0089 10.6395 16.1019 10.0424 15.4031L12.178 12.0662L14.2426 15.1024C13.4771 15.831 13 16.8599 13 18.0001C13 20.2093 14.7909 22.0001 17 22.0001C19.2091 22.0001 21 20.2093 21 18.0001C21 15.791 19.2091 14.0001 17 14.0001C16.471 14.0001 15.9659 14.1028 15.5037 14.2894L13.0575 10.692L13.0588 10.69L12.1409 9.3415ZM4.5 18.0001C4.5 16.6194 5.61929 15.5001 7 15.5001C8.38071 15.5001 9.5 16.6194 9.5 18.0001C9.5 19.3808 8.38071 20.5001 7 20.5001C5.61929 20.5001 4.5 19.3808 4.5 18.0001ZM14.5 18.0001C14.5 16.6194 15.6193 15.5001 17 15.5001C18.3807 15.5001 19.5 16.6194 19.5 18.0001C19.5 19.3808 18.3807 20.5001 17 20.5001C15.6193 20.5001 14.5 19.3808 14.5 18.0001ZM13.9381 9.31607L17.8815 3.15438C18.1048 2.8055 18.003 2.34167 17.6541 2.11839C17.3053 1.89511 16.8414 1.99692 16.6181 2.3458L13.0202 7.96756L13.9381 9.31607Z" fill="#212121"/>
</svg>

<svg viewBox="0 0 24 24" fill="none" xmlns="http://www.w3.org/2000/svg" height="1em" width="1em">
  <path d="M12.14 9.341v.002L7.37 2.328a.75.75 0 1 0-1.24.844l5.13 7.545-2.395 3.743a4 4 0 1 0 1.178.943l2.135-3.337 2.065 3.036a4 4 0 1 0 1.261-.813l-2.447-3.597.002-.002-.918-1.348Zm-7.64 8.66a2.5 2.5 0 1 1 5 0 2.5 2.5 0 0 1-5 0Zm10 0a2.5 2.5 0 1 1 5 0 2.5 2.5 0 0 1-5 0Zm-.562-8.685 3.943-6.162a.75.75 0 1 0-1.263-.808L13.02 7.968l.918 1.348Z" fill="#212121"/>
</svg>
